public/img/clients/unata.svg

<svg width="200" height="100" viewBox="0 0 200 100" fill="none" xmlns="http://www.w3.org/2000/svg">
<path fill-rule="evenodd" clip-rule="evenodd" d="M55.72 88.6359C55.72 91.6709 54.88 95.4999 48.272 95.4999C41.664 95.4999 40.824 91.6699 40.824 88.6359V78.4099H42.552V88.6359C42.552 93.0019 45.377 93.9119 48.272 93.9119C51.169 93.9119 53.992 93.0019 53.992 88.6359V78.4099H55.722V88.6359H55.72ZM68.77 78.4099H70.85L82.5 92.6499H82.548V78.4099H84.275V95.0799H82.267L70.544 80.8349H70.498V95.0799H68.77V78.4099ZM108.462 90.0129H99.682L97.42 95.0799H95.55L103.115 78.4099H105.123L112.688 95.0799H110.68L108.462 90.0129ZM104.096 80.1369L100.384 88.4249H107.761L104.097 80.1369H104.096ZM126.557 79.9949H120.02V78.4099H134.822V79.9949H128.282V95.0799H126.557V79.9939V79.9949ZM154.95 90.0129H146.17L143.906 95.0789H142.038L149.602 78.4089H151.612L159.176 95.0789H157.166L154.95 90.0119V90.0129ZM150.583 80.1369L146.873 88.4249H154.249L150.582 80.1369H150.583ZM123.737 27.6499V48.0479L103.48 68.0239V47.8369L123.737 27.6499ZM82.223 27.6499V48.0479L102.48 68.0239V47.8369L82.223 27.6499ZM122.737 26.6499L102.48 6.46289V26.8629L112.556 36.7969L122.736 26.6499H122.737Z" fill="black"/>
</svg>

<svg xmlns="http://www.w3.org/2000/svg" focusable="false" role="img" viewBox="0 0 200 100" fill="currentColor">
  <path fill-rule="evenodd" d="M55.72 88.636c0 3.035-.84 6.864-7.448 6.864-6.608 0-7.448-3.83-7.448-6.864V78.41h1.728v10.226c0 4.366 2.825 5.276 5.72 5.276 2.897 0 5.72-.91 5.72-5.276V78.41h1.73v10.226h-.002zM68.77 78.41h2.08L82.5 92.65h.048V78.41h1.727v16.67h-2.008L70.544 80.835h-.046V95.08H68.77V78.41zm39.692 11.603h-8.78L97.42 95.08h-1.87l7.565-16.67h2.008l7.565 16.67h-2.008l-2.218-5.067zm-4.366-9.876l-3.712 8.288h7.377l-3.664-8.288h-.001zm22.461-.142h-6.537V78.41h14.802v1.585h-6.54V95.08h-1.725V79.994v.001zm28.393 10.018h-8.78l-2.264 5.066h-1.868l7.564-16.67h2.01l7.564 16.67h-2.01l-2.216-5.067v.001zm-4.367-9.876l-3.71 8.288h7.376l-3.667-8.288h.001zM123.737 27.65v20.398L103.48 68.024V47.837l20.257-20.187zm-41.514 0v20.398l20.257 19.976V47.837L82.223 27.65zm40.514-1L102.48 6.463v20.4l10.076 9.934 10.18-10.147h.001z" clip-rule="evenodd"/>
</svg>
